logo/tealium.svg

<?xml version="1.0" encoding="UTF-8"?>
<svg width="256px" height="405px" viewBox="0 0 256 405" version="1.1" xmlns="http://www.w3.org/2000/svg" preserveAspectRatio="xMidYMid">
    <title>Tealium</title>
    <g>
        <path d="M255.961067,209.712903 C255.961067,184.942477 234.286945,164.300456 209.516519,165.332557 C184.746093,165.332557 165.136173,185.974579 165.136173,210.745004 C165.136173,235.51543 186.810295,256.157452 211.580721,255.125351 C237.383248,255.125351 256.993168,234.483329 255.961067,209.712903 L255.961067,209.712903 Z M119.723725,246.868542 C134.17314,238.611734 154.815162,246.868542 167.200375,267.510564 C179.585588,287.120484 178.553487,310.858809 164.104071,319.115618 C149.654656,327.372426 129.012635,319.115618 115.595321,298.473596 C104.242209,278.863676 105.27431,255.125351 119.723725,246.868542 L119.723725,246.868542 Z M76.3754798,297.441495 C88.7606927,292.28099 104.242209,303.634101 112.499018,323.244022 C120.755826,342.853942 117.659523,362.463863 105.27431,367.624368 C92.889097,372.784874 77.4075809,361.431762 69.1507722,341.821841 C60.8939636,322.211921 63.9902669,302.602 76.3754798,297.441495 L76.3754798,297.441495 Z M36.1235377,336.661336 C44.3803464,333.565033 56.7655593,345.950246 63.9902669,364.528065 C71.2149744,383.105885 69.1507722,400.651603 60.8939636,403.747906 C52.637155,406.844209 40.2519421,394.458996 33.0272345,375.881177 C26.834628,357.303358 27.8667291,339.757639 36.1235377,336.661336 L36.1235377,336.661336 Z M153.783061,92.05338 C169.264577,97.2138854 177.521385,118.888008 170.296678,141.594232 C164.104071,164.300456 145.526252,178.749871 129.012635,173.589366 C112.499018,168.42886 105.27431,146.754738 111.466916,124.048514 C119.723725,101.34229 138.301544,86.8928747 153.783061,92.05338 L153.783061,92.05338 Z M95.9854003,40.4483261 C108.370613,43.5446294 114.56322,62.1224488 109.402714,82.7644703 C104.242209,103.406492 89.7927938,116.823806 76.3754798,112.695402 C63.9902669,109.599099 57.7976604,89.9891779 63.9902669,70.3792574 C69.1507722,49.7372358 83.6001873,36.3199218 95.9854003,40.4483261 L95.9854003,40.4483261 Z M52.637155,0.196384074 C61.9260647,2.26058623 65.0223679,18.7742035 60.8939636,38.384124 C56.7655593,57.9940445 46.4445485,71.4113585 37.1556388,69.3471563 C28.8988302,68.3150552 24.7704259,50.7693369 28.8988302,32.1915175 C33.0272345,12.581597 43.3482453,-1.86781808 52.637155,0.196384074 L52.637155,0.196384074 Z" fill="#0AB7C9"></path>
        <path d="M113.531119,203.499006 C114.56322,223.108926 103.210108,239.622544 88.7606927,239.622544 C74.3112776,239.622544 62.9581658,224.141027 62.9581658,204.531107 C62.9581658,184.921186 74.3112776,168.407569 87.7285917,168.407569 C102.178007,168.407569 113.531119,183.889085 113.531119,203.499006 Z M30.9630323,262.328767 C27.8667291,244.783049 34.0593356,228.269432 44.3803464,226.20523 C55.7334582,224.141027 66.054469,237.558341 70.1828733,255.10406 C73.2791766,273.681879 67.0865701,289.163395 56.7655593,291.227598 C45.4124474,294.323901 34.0593356,280.906587 30.9630323,262.328767 Z M34.0593356,298.452305 L34.0593356,298.452305 C38.1877399,314.965922 36.1235377,329.415337 27.8667291,331.47954 C20.6420216,333.543742 10.3210108,322.19063 6.19260647,306.709114 C1.03210108,291.227598 4.12840431,275.746081 11.3531119,273.681879 C19.6099205,271.617677 28.8988302,281.938688 34.0593356,298.452305 Z M67.0865701,144.669244 L67.0865701,144.669244 C68.1186712,162.214963 59.8618625,176.664378 49.5408518,176.664378 C39.219841,176.664378 29.9309313,162.214963 29.9309313,144.669244 C28.8988302,127.123526 37.1556388,112.674111 47.4766496,112.674111 C57.7976604,112.674111 67.0865701,127.123526 67.0865701,144.669244 Z M29.9309313,97.1925944 C30.9630323,113.706212 23.7383248,126.091425 15.4815162,126.091425 C7.22470755,127.123526 0,113.706212 0,98.2246955 C0,82.7431793 6.19260647,69.3258653 14.4494151,69.3258653 C22.7062237,68.2937642 29.9309313,81.7110783 29.9309313,97.1925944 Z" fill="#24D6E0"></path>
    </g>
</svg>

<svg viewBox="0 0 256 405" xmlns="http://www.w3.org/2000/svg"><path fill="#0AB7C9" d="M255.96 209.71c0-24.78-21.68-45.42-46.45-44.39 -24.78 0-44.39 20.64-44.39 45.41 0 24.77 21.67 45.41 46.44 44.38 25.8 0 45.41-20.65 44.38-45.42v0Zm-136.24 37.15c14.44-8.26 35.09 0 47.47 20.64 12.38 19.6 11.35 43.34-3.1 51.6 -14.45 8.25-35.1 0-48.51-20.65 -11.36-19.61-10.33-43.35 4.12-51.61v0Zm-43.35 50.57c12.38-5.17 27.86 6.19 36.12 25.8 8.25 19.6 5.16 39.21-7.23 44.38 -12.39 5.16-27.87-6.2-36.13-25.81 -8.26-19.61-5.17-39.22 7.22-44.39v0Zm-40.26 39.21c8.25-3.1 20.64 9.28 27.86 27.86 7.22 18.57 5.16 36.12-3.1 39.21 -8.26 3.09-20.65-9.29-27.87-27.87 -6.2-18.58-5.17-36.13 3.09-39.22v0ZM153.76 92.03c15.48 5.16 23.73 26.83 16.51 49.54 -6.2 22.7-24.78 37.15-41.29 31.99 -16.52-5.17-23.74-26.84-17.55-49.55 8.25-22.71 26.83-37.16 42.31-32v0Zm-57.8-51.61c12.38 3.09 18.57 21.67 13.41 42.31 -5.17 20.64-19.61 34.05-33.03 29.93 -12.39-3.1-18.58-22.71-12.39-42.32 5.16-20.65 19.6-34.06 31.99-29.94v0ZM52.61.16c9.28 2.06 12.38 18.57 8.25 38.18 -4.13 19.6-14.45 33.02-23.74 30.96 -8.26-1.04-12.39-18.58-8.26-37.16C32.98 12.53 43.3-1.92 52.59.14V.13Z"/><path fill="#24D6E0" d="M113.53 203.49c1.03 19.6-10.33 36.12-24.78 36.12 -14.45 0-25.81-15.49-25.81-35.1s11.35-36.13 24.77-36.13c14.44 0 25.8 15.48 25.8 35.09Zm-82.57 58.82c-3.1-17.55 3.09-34.06 13.41-36.13 11.35-2.07 21.67 11.35 25.8 28.89 3.09 18.57-3.1 34.05-13.42 36.12 -11.36 3.09-22.71-10.33-25.81-28.9Zm3.09 36.12v0c4.12 16.51 2.06 30.96-6.2 33.02 -7.23 2.06-17.55-9.29-21.68-24.78C1 291.18 4.1 275.7 11.33 273.64c8.25-2.07 17.54 8.25 22.7 24.77Zm33.02-153.79v0c1.03 17.54-7.23 31.99-17.55 31.99 -10.33 0-19.61-14.45-19.61-32 -1.04-17.55 7.22-32 17.54-32s19.6 14.44 19.6 31.99ZM29.91 97.16c1.03 16.51-6.2 28.89-14.45 28.89C7.2 127.08-.03 113.66-.03 98.18c0-15.49 6.19-28.9 14.44-28.9 8.25-1.04 15.48 12.38 15.48 27.86Z"/></svg>
